frontend/public/svg/currency/ruble.svg

<svg width="163" height="160" viewBox="0 0 163 160" fill="none" xmlns="http://www.w3.org/2000/svg">
<g clip-path="url(#clip0)">
<path d="M60.2202 115.276C57.2109 114.997 54.5459 114.796 51.8936 114.481C50.8968 114.365 49.9229 114.1 49.0055 113.693C47.5031 113.015 46.6672 111.62 47.2146 110.135C47.4409 109.546 47.7833 109.008 48.2216 108.555C48.6599 108.101 49.185 107.74 49.7656 107.494C51.4268 106.986 53.3048 107.179 55.0913 107.088C56.7617 107.004 58.4331 106.938 60.4927 106.846V95.6887C59.0296 95.7202 57.5667 95.6244 56.1201 95.4038C53.9726 94.9162 51.6855 94.4541 49.8464 93.3403C47.1653 91.7165 47.1974 88.6436 49.874 87.0283C51.7355 86.0353 53.7497 85.3599 55.8335 85.0298C57.328 84.7226 58.936 84.97 60.9484 84.97C60.9484 83.4362 60.9339 82.2403 60.9484 81.0445C61.1151 69.1477 61.2605 57.2503 61.4804 45.3541C61.5198 43.2289 61.8625 41.1097 62.0777 38.9877C62.3252 36.5494 63.6468 35.2079 66.0818 34.7215C75.25 32.8877 84.3679 33.2533 93.4844 35.0871C100.355 36.4694 106.972 38.3891 112.683 42.7294C124.856 51.9838 127.057 70.1611 117.18 81.5846C112.136 87.4182 105.386 90.6067 97.9823 91.9344C89.7184 93.4171 81.3231 94.166 72.9837 95.2299C72.2132 95.3283 71.4347 95.3684 70.4299 95.4557V106.762C73.8993 106.472 77.4068 106.105 80.9234 105.918C82.5813 105.794 84.2484 105.905 85.8755 106.246C87.939 106.732 89.0515 108.346 89.1572 110.443C89.2537 111.353 89.0476 112.269 88.5711 113.049C88.0946 113.831 87.3739 114.432 86.5207 114.762C84.8601 115.391 83.0998 115.717 81.3238 115.723C77.752 115.73 74.1789 115.431 70.1529 115.235C69.981 118.189 69.8622 120.945 69.6449 123.694C69.5747 125.144 69.3581 126.584 68.9997 127.992C68.3283 130.311 66.5326 131.78 64.6826 131.543C62.6151 131.281 61.0915 130.113 60.7292 127.975C60.4384 126.102 60.2719 124.212 60.2305 122.316C60.159 119.995 60.2202 117.671 60.2202 115.276ZM70.214 84.8709C81.4176 84.5428 92.1658 84.2979 102.455 80.6474C104.754 79.7679 106.913 78.5596 108.866 77.0605C110.468 75.904 111.81 74.424 112.804 72.7155C113.797 71.0078 114.42 69.1096 114.633 67.1446C115.572 59.0394 113.08 52.1052 105.961 47.7439C102.205 45.4427 97.8786 43.9339 93.6459 42.5772C85.8742 40.0871 77.855 39.6487 69.1868 40.6351C69.5261 55.2564 69.8635 69.7797 70.214 84.8683V84.8709Z" fill="black"/>
<path d="M161.385 73.2751C159.538 57.0687 153.033 41.7454 142.657 29.1604C134.105 18.6662 124.905 11.1873 114.532 6.30412C106.438 2.4045 97.5716 0.373869 88.5876 0.362305C85.8271 0.366804 83.0698 0.546939 80.3329 0.901749C68.9415 2.37917 57.3951 5.68388 44.0078 11.3087C25.8994 18.9222 13.2911 32.0063 6.54332 50.1888C1.81012 62.6747 -0.0140909 76.0757 1.2093 89.3724C2.63224 104.311 6.22665 115.888 12.5183 125.799C21.6099 140.107 33.062 149.526 47.5356 154.591C56.3095 157.666 65.9669 159.21 77.9175 159.453C84.9522 159.453 91.5011 158.604 97.8341 157.781L99.0346 157.626C112.86 155.838 124.602 150.848 134.936 142.384C144.653 134.569 152.008 124.209 156.18 112.459C161.128 98.4246 162.829 85.6037 161.385 73.2751ZM145.064 117.835C137.241 133.677 124.082 144.07 105.94 148.723C103.762 149.283 101.509 149.687 99.1284 150.113C97.947 150.321 96.7138 150.544 95.4188 150.793C89.7743 151.643 82.1608 151.772 77.9648 151.772C76.0969 151.772 74.903 151.744 74.8695 151.744C63.8492 151.613 54.3669 149.741 45.889 146.026C34.5928 141.075 25.5623 132.719 18.2914 120.485C13.9011 113.107 11.1159 104.372 9.53082 93.002C7.49742 78.5383 9.27551 63.7945 14.6898 50.2295C20.3888 35.7763 30.6389 24.8108 45.1538 17.641C48.5057 15.9824 62.1295 11.9893 65.7105 11.2614C70.753 10.2551 75.8658 9.63959 81.003 9.42037C101.323 8.93468 109.35 12.2052 121.762 21.6814C134.758 31.602 143.916 44.0717 148.988 58.7409C155.875 78.7247 154.56 98.6064 145.064 117.835Z" fill="black"/>
</g>
<defs>
<clipPath id="clip0">
<rect width="161.459" height="159.49" fill="white" transform="translate(0.59375 0.13501)"/>
</clipPath>
</defs>
</svg>

<svg xmlns="http://www.w3.org/2000/svg" width="163" height="160" fill="none" viewBox="0 0 163 160"><g fill="#000" clip-path="url(#a)"><path d="M60.22 115.276c-3.01-.279-5.674-.48-8.326-.795a10 10 0 0 1-2.889-.788c-1.502-.678-2.338-2.073-1.79-3.558a4.7 4.7 0 0 1 2.55-2.641c1.662-.508 3.54-.315 5.326-.406 1.67-.084 3.342-.15 5.402-.242V95.689a25.4 25.4 0 0 1-4.373-.285c-2.147-.488-4.434-.95-6.274-2.064-2.68-1.624-2.649-4.696.028-6.312a19 19 0 0 1 5.96-1.998c1.494-.307 3.102-.06 5.114-.06 0-1.534-.014-2.73 0-3.925.167-11.897.313-23.795.532-35.69.04-2.126.383-4.245.598-6.367.247-2.439 1.569-3.78 4.004-4.267 9.168-1.833 18.286-1.468 27.402.366 6.871 1.382 13.488 3.302 19.199 7.642 12.173 9.255 14.374 27.432 4.497 38.856-5.044 5.833-11.794 9.022-19.198 10.35-8.264 1.482-16.659 2.231-24.998 3.295-.77.098-1.55.138-2.554.226v11.306c3.47-.29 6.977-.657 10.493-.844a17.7 17.7 0 0 1 4.953.328c2.063.486 3.175 2.1 3.281 4.197a4.16 4.16 0 0 1-2.636 4.319c-1.66.629-3.421.955-5.197.961-3.572.007-7.145-.292-11.171-.488-.172 2.954-.29 5.71-.508 8.459-.07 1.45-.287 2.89-.645 4.298-.672 2.319-2.467 3.788-4.317 3.551-2.068-.262-3.592-1.43-3.954-3.568a43 43 0 0 1-.498-5.659c-.072-2.321-.01-4.645-.01-7.04m9.994-30.405c11.204-.328 21.952-.573 32.241-4.224a25.5 25.5 0 0 0 6.411-3.587 14.1 14.1 0 0 0 5.767-9.916c.939-8.105-1.553-15.039-8.672-19.4-3.756-2.301-8.082-3.81-12.315-5.167-7.772-2.49-15.791-2.928-24.46-1.942l1.028 44.233z"/><path d="M161.385 73.275a84.36 84.36 0 0 0-18.728-44.115c-8.552-10.494-17.752-17.973-28.125-22.856A59.95 59.95 0 0 0 88.588.362c-2.76.005-5.518.185-8.255.54-11.391 1.477-22.938 4.782-36.325 10.407-18.109 7.613-30.717 20.697-37.465 38.88A87.84 87.84 0 0 0 1.21 89.372c1.423 14.939 5.018 26.516 11.31 36.427 9.09 14.308 20.543 23.727 35.017 28.792 8.773 3.075 18.43 4.619 30.382 4.862 7.034 0 13.583-.849 19.916-1.672l1.2-.155c13.826-1.788 25.568-6.778 35.902-15.242a67.3 67.3 0 0 0 21.244-29.925c4.948-14.034 6.649-26.855 5.205-39.184m-16.321 44.56c-7.823 15.842-20.982 26.235-39.124 30.888-2.178.56-4.431.964-6.812 1.39-1.181.208-2.414.431-3.71.68-5.644.85-13.257.979-17.453.979-1.868 0-3.062-.028-3.096-.028-11.02-.131-20.502-2.003-28.98-5.718-11.296-4.951-20.327-13.307-27.598-25.541-4.39-7.378-7.175-16.113-8.76-27.483A83.9 83.9 0 0 1 14.69 50.23c5.699-14.454 15.949-25.42 30.464-32.589 3.352-1.659 16.975-5.652 20.556-6.38a100 100 0 0 1 15.293-1.84c20.32-.486 28.347 2.784 40.759 12.26 12.996 9.921 22.154 22.39 27.226 37.06 6.887 19.984 5.572 39.865-3.924 59.094"/></g><defs><clipPath id="a"><path fill="#fff" d="M.594.135h161.459v159.49H.593z"/></clipPath></defs></svg>
